src/assets/icon-sound-on.svg

<svg fill="none" viewBox="0 0 260 260" xmlns="http://www.w3.org/2000/svg"><g fill="currentColor"><path d="m161.29 98.3765c-.633-.9495-1.448-1.7648-2.397-2.3996-.948-.6347-2.013-1.0763-3.132-1.2996-2.261-.451-4.608.0145-6.526 1.2942-1.917 1.2796-3.248 3.2686-3.699 5.5295-.451 2.261.014 4.608 1.294 6.525 4.4 6.564 6.75 14.288 6.75 22.19 0 7.903-2.35 15.627-6.75 22.19-.635.95-1.078 2.015-1.302 3.136-.224 1.12-.225 2.274-.003 3.394.222 1.121.663 2.187 1.297 3.138.634.95 1.449 1.767 2.398 2.402.95.636 2.015 1.078 3.135 1.302 1.121.224 2.274.225 3.395.003s2.187-.662 3.138-1.296c.95-.634 1.767-1.449 2.402-2.399 6.317-9.422 9.689-20.51 9.689-31.855 0-11.344-3.372-22.432-9.689-31.8545z"/><path d="m219.16 59.8065-3.9-5.85c-.626-.9644-1.438-1.7948-2.387-2.4433-.95-.6484-2.019-1.1018-3.145-1.3341-1.127-.2323-2.288-.2387-3.416-.0189-1.129.2198-2.203.6614-3.16 1.2993s-1.777 1.4593-2.414 2.4166c-.637.9574-1.078 2.0317-1.297 3.1606-.219 1.129-.211 2.2901.022 3.4161s.688 2.1946 1.337 3.1437l3.9 5.85c12.037 17.9794 18.462 39.1285 18.462 60.7645 0 21.637-6.425 42.786-18.462 60.765l-3.89 5.84c-.649.95-1.104 2.018-1.337 3.144s-.241 2.287-.022 3.416.66 2.203 1.297 3.161c.637.957 1.457 1.779 2.414 2.416.957.638 2.031 1.08 3.16 1.3 1.128.22 2.289.213 3.416-.019 1.126-.232 2.195-.686 3.145-1.334.949-.649 1.761-1.479 2.387-2.444l3.89-5.83c13.948-20.832 21.394-45.339 21.394-70.41s-7.446-49.5766-21.394-70.4095z"/><path d="m190.23 79.0865-3.9-5.85c-1.278-1.9189-3.266-3.2513-5.527-3.7042s-4.609.0108-6.528 1.2892c-1.919 1.2783-3.251 3.2665-3.704 5.5273-.453 2.2607.011 4.6088 1.289 6.5277l3.9 5.85c8.223 12.2785 12.613 26.7225 12.613 41.4995 0 14.778-4.39 29.222-12.613 41.5l-3.9 5.85c-1.278 1.919-1.742 4.267-1.289 6.528s1.785 4.249 3.704 5.527c1.919 1.279 4.267 1.743 6.528 1.29s4.249-1.786 5.527-3.705l3.9-5.85c10.13-15.131 15.538-32.93 15.538-51.14 0-18.209-5.408-36.0079-15.538-51.1395z"/><path d="m112.71 54.3965c-.974-.4258-2.051-.5579-3.099-.3803s-2.022.6573-2.801 1.3803l-42.9999 40.72h-38.36c-.719 0-1.431.1422-2.0949.4186-.6638.2764-1.2664.6814-1.773 1.1918-.5066.5103-.9072 1.1158-1.1787 1.7817-.2716.6654-.4086 1.3784-.4034 2.0974v57.2c0 1.446.5742 2.832 1.5963 3.854s2.4083 1.596 3.8537 1.596h38.35l42.9999 40.72c.777.733 1.751 1.221 2.803 1.405 1.051.184 2.134.055 3.112-.371.979-.426 1.811-1.131 2.393-2.025.583-.895.889-1.941.882-3.009v-141.5795c0-1.0624-.31-2.1017-.893-2.9901-.583-.8883-1.412-1.5869-2.387-2.0099z"/></g></svg>

<svg viewBox="0 0 260 260" fill="none" xmlns="http://www.w3.org/2000/svg">
<path d="M161.29 98.3765C160.657 97.427 159.842 96.6117 158.893 95.9769C157.945 95.3422 156.88 94.9006 155.761 94.6773C153.5 94.2263 151.153 94.6918 149.235 95.9715C147.318 97.2511 145.987 99.2401 145.536 101.501C145.085 103.762 145.55 106.109 146.83 108.026C151.23 114.59 153.58 122.314 153.58 130.216C153.58 138.119 151.23 145.843 146.83 152.406C146.195 153.356 145.752 154.421 145.528 155.542C145.304 156.662 145.303 157.816 145.525 158.936C145.747 160.057 146.188 161.123 146.822 162.074C147.456 163.024 148.271 163.841 149.22 164.476C150.17 165.112 151.235 165.554 152.355 165.778C153.476 166.002 154.629 166.003 155.75 165.781C156.871 165.559 157.937 165.119 158.888 164.485C159.838 163.851 160.655 163.036 161.29 162.086C167.607 152.664 170.979 141.576 170.979 130.231C170.979 118.887 167.607 107.799 161.29 98.3765V98.3765Z" fill="#F7EED9"/>
<path d="M219.16 59.8065L215.26 53.9565C214.634 52.9921 213.822 52.1617 212.873 51.5132C211.923 50.8648 210.854 50.4114 209.728 50.1791C208.601 49.9468 207.44 49.9404 206.312 50.1602C205.183 50.38 204.109 50.8216 203.152 51.4595C202.195 52.0974 201.375 52.9188 200.738 53.8761C200.101 54.8335 199.66 55.9078 199.441 57.0367C199.222 58.1657 199.23 59.3268 199.463 60.4528C199.696 61.5788 200.151 62.6474 200.8 63.5965L204.7 69.4465C216.737 87.4259 223.162 108.575 223.162 130.211C223.162 151.848 216.737 172.997 204.7 190.976L200.81 196.816C200.161 197.766 199.706 198.834 199.473 199.96C199.24 201.086 199.232 202.247 199.451 203.376C199.67 204.505 200.111 205.579 200.748 206.537C201.385 207.494 202.205 208.316 203.162 208.953C204.119 209.591 205.193 210.033 206.322 210.253C207.45 210.473 208.611 210.466 209.738 210.234C210.864 210.002 211.933 209.548 212.883 208.9C213.832 208.251 214.644 207.421 215.27 206.456L219.16 200.626C233.108 179.794 240.554 155.287 240.554 130.216C240.554 105.145 233.108 80.6394 219.16 59.8065V59.8065Z" fill="#F7EED9"/>
<path d="M190.23 79.0865L186.33 73.2365C185.052 71.3176 183.064 69.9852 180.803 69.5323C178.542 69.0794 176.194 69.5431 174.275 70.8215C172.356 72.0998 171.024 74.088 170.571 76.3488C170.118 78.6095 170.582 80.9576 171.86 82.8765L175.76 88.7265C183.983 101.005 188.373 115.449 188.373 130.226C188.373 145.004 183.983 159.448 175.76 171.726L171.86 177.576C170.582 179.495 170.118 181.843 170.571 184.104C171.024 186.365 172.356 188.353 174.275 189.631C176.194 190.91 178.542 191.374 180.803 190.921C183.064 190.468 185.052 189.135 186.33 187.216L190.23 181.366C200.36 166.235 205.768 148.436 205.768 130.226C205.768 112.017 200.36 94.2181 190.23 79.0865V79.0865Z" fill="#F7EED9"/>
<path d="M112.71 54.3965C111.736 53.9707 110.659 53.8386 109.611 54.0162C108.563 54.1938 107.589 54.6735 106.81 55.3965L63.8101 96.1165H25.4501C24.7311 96.1165 24.0191 96.2587 23.3552 96.5351C22.6914 96.8115 22.0888 97.2165 21.5822 97.7269C21.0756 98.2372 20.675 98.8427 20.4035 99.5086C20.1319 100.174 19.9949 100.887 20.0001 101.606V158.806C20.0001 160.252 20.5743 161.638 21.5964 162.66C22.6185 163.682 24.0047 164.256 25.4501 164.256H63.8001L106.8 204.976C107.577 205.709 108.551 206.197 109.603 206.381C110.654 206.565 111.737 206.436 112.715 206.01C113.694 205.584 114.526 204.879 115.108 203.985C115.691 203.09 115.997 202.044 115.99 200.976V59.3965C115.99 58.3341 115.68 57.2948 115.097 56.4064C114.514 55.5181 113.685 54.8195 112.71 54.3965V54.3965Z" fill="#F7EED9"/>
</svg>
